modules/feathericon/icons/italic.svg

<svg width="8" height="14" xmlns="http://www.w3.org/2000/svg"><path d="M4 2H2.5S2 2 2 1.5v-1c0-.5.5-.5.5-.5h5S8 0 8 .5v1c0 .5-.5.5-.5.5H6L4 12h1.5s.5 0 .5.5v1c0 .5-.5.5-.5.5h-5s-.5 0-.5-.5v-1c0-.5.5-.5.5-.5H2L4 2z" fill="#000" fill-rule="evenodd"/></svg>

<?xml version="1.0" encoding="UTF-8"?>
<svg width="8px" height="14px" viewBox="0 0 8 14" version="1.1" xmlns="http://www.w3.org/2000/svg" xmlns:xlink="http://www.w3.org/1999/xlink">
    <!-- Generator: sketchtool 48.1 (47250) - http://www.bohemiancoding.com/sketch -->
    <title>italic</title>
    <desc>Created with sketchtool.</desc>
    <defs></defs>
    <g id="text-edit" stroke="none" stroke-width="1" fill="none" fill-rule="evenodd">
        <g id="italic" fill="#000000">
            <path d="M4,2 L2.5,2 C2.5,2 2,2 2,1.5 C2,1.5 2,0.5 2,0.5 C2,-5.68434189e-14 2.5,-5.68434189e-14 2.5,-5.68434189e-14 L7.5,-5.68434189e-14 C7.5,-5.68434189e-14 8,-5.68434189e-14 8,0.5 C8,0.5 8,1.5 8,1.5 C8,2 7.5,2 7.5,2 L6,2 L4,12 L5.5,12 C5.5,12 6,12 6,12.5 C6,12.5 6,13.5 6,13.5 C6,14 5.5,14 5.5,14 L0.5,14 C0.5,14 -5.67879077e-14,14 -5.67879077e-14,13.5 C-5.67879077e-14,13.5 -5.67879077e-14,12.5 -5.67879077e-14,12.5 C-5.67879077e-14,12 0.5,12 0.5,12 L2,12 L4,2 Z" id="Shape"></path>
        </g>
    </g>
</svg>
